X: 21607
T: Killashandra Lasses, The
R: jig
M: 6/8
K: Gmajor
|:D|GAG BAG|dBG BAG|ABA ABd|ecA A2D|
GAG BAG|dBG BAG|ABc BAB|GEE E2:|
|:d|efg fed|efg dBG|ABA ABd|ecA A2d|
efg fed|efg dBG|ABc BAB|GEE E2:|

